assets/White medium-small square/Flat/white_medium-small_square_flat.svg

<svg width="32" height="32" viewBox="0 0 32 32" fill="none" xmlns="http://www.w3.org/2000/svg">
<path d="M10.0278 7.5C8.64712 7.5 7.52783 8.61929 7.52783 10V22C7.52783 23.3807 8.64712 24.5 10.0278 24.5H22.0278C23.4085 24.5 24.5278 23.3807 24.5278 22V10C24.5278 8.61929 23.4085 7.5 22.0278 7.5H10.0278Z" fill="#9B9B9B"/>
<path d="M8.52783 10C8.52783 9.17157 9.1994 8.5 10.0278 8.5H22.0278C22.8563 8.5 23.5278 9.17157 23.5278 10V22C23.5278 22.8284 22.8563 23.5 22.0278 23.5H10.0278C9.1994 23.5 8.52783 22.8284 8.52783 22V10Z" fill="white"/>
</svg>

<svg xmlns="http://www.w3.org/2000/svg" width="32" height="32" fill="none"><path fill="#9B9B9B" d="M10.028 7.5a2.5 2.5 0 0 0-2.5 2.5v12a2.5 2.5 0 0 0 2.5 2.5h12a2.5 2.5 0 0 0 2.5-2.5V10a2.5 2.5 0 0 0-2.5-2.5h-12Z"/><path fill="#fff" d="M8.528 10a1.5 1.5 0 0 1 1.5-1.5h12a1.5 1.5 0 0 1 1.5 1.5v12a1.5 1.5 0 0 1-1.5 1.5h-12a1.5 1.5 0 0 1-1.5-1.5V10Z"/></svg>
